dist/images/logo.svg

<svg width="174" height="100" viewBox="0 0 174 100" fill="none" xmlns="http://www.w3.org/2000/svg">
<path d="M20.18 28.33H7.93L5.515 34H0.825L11.85 9.5H16.33L27.39 34H22.63L20.18 28.33ZM18.675 24.76L14.055 14.05L9.47 24.76H18.675ZM40.6908 15.1C43.0475 15.1 44.9375 15.7883 46.3608 17.165C47.7842 18.5417 48.4958 20.5833 48.4958 23.29V34H44.1208V23.85C44.1208 22.2167 43.7358 20.9917 42.9658 20.175C42.1958 19.335 41.0992 18.915 39.6758 18.915C38.0658 18.915 36.7942 19.405 35.8608 20.385C34.9275 21.3417 34.4608 22.73 34.4608 24.55V34H30.0858V15.31H34.2508V17.725C34.9742 16.8617 35.8842 16.2083 36.9808 15.765C38.0775 15.3217 39.3142 15.1 40.6908 15.1ZM72.5217 8.03V34H68.3217V31.585C67.5983 32.4717 66.7 33.1367 65.6267 33.58C64.5767 34.0233 63.41 34.245 62.1267 34.245C60.33 34.245 58.7083 33.8483 57.2617 33.055C55.8383 32.2617 54.7183 31.1417 53.9017 29.695C53.085 28.225 52.6767 26.545 52.6767 24.655C52.6767 22.765 53.085 21.0967 53.9017 19.65C54.7183 18.2033 55.8383 17.0833 57.2617 16.29C58.7083 15.4967 60.33 15.1 62.1267 15.1C63.3633 15.1 64.495 15.31 65.5217 15.73C66.5483 16.15 67.4233 16.78 68.1467 17.62V8.03H72.5217ZM62.6517 30.5C63.7017 30.5 64.6467 30.2667 65.4867 29.8C66.3267 29.31 66.9917 28.6217 67.4817 27.735C67.9717 26.8483 68.2167 25.8217 68.2167 24.655C68.2167 23.4883 67.9717 22.4617 67.4817 21.575C66.9917 20.6883 66.3267 20.0117 65.4867 19.545C64.6467 19.055 63.7017 18.81 62.6517 18.81C61.6017 18.81 60.6567 19.055 59.8167 19.545C58.9767 20.0117 58.3117 20.6883 57.8217 21.575C57.3317 22.4617 57.0867 23.4883 57.0867 24.655C57.0867 25.8217 57.3317 26.8483 57.8217 27.735C58.3117 28.6217 58.9767 29.31 59.8167 29.8C60.6567 30.2667 61.6017 30.5 62.6517 30.5ZM82.41 18.04C83.67 16.08 85.8867 15.1 89.06 15.1V19.265C88.6867 19.195 88.3483 19.16 88.045 19.16C86.3417 19.16 85.0117 19.6617 84.055 20.665C83.0983 21.645 82.62 23.0683 82.62 24.935V34H78.245V15.31H82.41V18.04ZM110.17 24.76C110.17 25.0633 110.147 25.495 110.1 26.055H95.4355C95.6921 27.4317 96.3571 28.5283 97.4305 29.345C98.5271 30.1383 99.8805 30.535 101.49 30.535C103.544 30.535 105.235 29.8583 106.565 28.505L108.91 31.2C108.07 32.2033 107.009 32.9617 105.725 33.475C104.442 33.9883 102.995 34.245 101.385 34.245C99.3321 34.245 97.5238 33.8367 95.9605 33.02C94.3971 32.2033 93.1838 31.0717 92.3205 29.625C91.4805 28.155 91.0605 26.4983 91.0605 24.655C91.0605 22.835 91.4688 21.2017 92.2855 19.755C93.1255 18.285 94.2805 17.1417 95.7505 16.325C97.2205 15.5083 98.8771 15.1 100.72 15.1C102.54 15.1 104.162 15.5083 105.585 16.325C107.032 17.1183 108.152 18.25 108.945 19.72C109.762 21.1667 110.17 22.8467 110.17 24.76ZM100.72 18.6C99.3205 18.6 98.1305 19.02 97.1505 19.86C96.1938 20.6767 95.6105 21.7733 95.4005 23.15H106.005C105.819 21.7967 105.247 20.7 104.29 19.86C103.334 19.02 102.144 18.6 100.72 18.6ZM114.373 15.31H118.748V34H114.373V15.31ZM116.578 12.23C115.785 12.23 115.12 11.985 114.583 11.495C114.046 10.9817 113.778 10.3517 113.778 9.605C113.778 8.85833 114.046 8.24 114.583 7.75C115.12 7.23667 115.785 6.98 116.578 6.98C117.371 6.98 118.036 7.225 118.573 7.715C119.11 8.18167 119.378 8.77667 119.378 9.5C119.378 10.27 119.11 10.9233 118.573 11.46C118.06 11.9733 117.395 12.23 116.578 12.23ZM21.65 64.26C23.0033 64.7033 24.0767 65.45 24.87 66.5C25.6633 67.5267 26.06 68.81 26.06 70.35C26.06 72.4733 25.2433 74.1183 23.61 75.285C21.9767 76.4283 19.5967 77 16.47 77H4.29V52.5H15.77C18.6633 52.5 20.8917 53.0717 22.455 54.215C24.0183 55.335 24.8 56.8867 24.8 58.87C24.8 60.0833 24.52 61.1567 23.96 62.09C23.4 63.0233 22.63 63.7467 21.65 64.26ZM8.84 56.07V62.825H15.28C16.8667 62.825 18.08 62.545 18.92 61.985C19.7833 61.4017 20.215 60.5617 20.215 59.465C20.215 58.345 19.7833 57.505 18.92 56.945C18.08 56.3617 16.8667 56.07 15.28 56.07H8.84ZM16.19 73.43C19.7133 73.43 21.475 72.2517 21.475 69.895C21.475 67.5383 19.7133 66.36 16.19 66.36H8.84V73.43H16.19ZM34.661 61.04C35.921 59.08 38.1376 58.1 41.311 58.1V62.265C40.9376 62.195 40.5993 62.16 40.296 62.16C38.5926 62.16 37.2626 62.6617 36.306 63.665C35.3493 64.645 34.871 66.0683 34.871 67.935V77H30.496V58.31H34.661V61.04ZM45.0223 58.31H49.3973V77H45.0223V58.31ZM47.2273 55.23C46.434 55.23 45.769 54.985 45.2323 54.495C44.6957 53.9817 44.4273 53.3517 44.4273 52.605C44.4273 51.8583 44.6957 51.24 45.2323 50.75C45.769 50.2367 46.434 49.98 47.2273 49.98C48.0207 49.98 48.6857 50.225 49.2223 50.715C49.759 51.1817 50.0273 51.7767 50.0273 52.5C50.0273 53.27 49.759 53.9233 49.2223 54.46C48.709 54.9733 48.044 55.23 47.2273 55.23ZM65.7445 58.1C68.1012 58.1 69.9912 58.7883 71.4145 60.165C72.8379 61.5417 73.5495 63.5833 73.5495 66.29V77H69.1745V66.85C69.1745 65.2167 68.7895 63.9917 68.0195 63.175C67.2495 62.335 66.1529 61.915 64.7295 61.915C63.1195 61.915 61.8479 62.405 60.9145 63.385C59.9812 64.3417 59.5145 65.73 59.5145 67.55V77H55.1395V58.31H59.3045V60.725C60.0279 59.8617 60.9379 59.2083 62.0345 58.765C63.1312 58.3217 64.3679 58.1 65.7445 58.1ZM97.5754 51.03V77H93.3754V74.585C92.6521 75.4717 91.7537 76.1367 90.6804 76.58C89.6304 77.0233 88.4637 77.245 87.1804 77.245C85.3837 77.245 83.7621 76.8483 82.3154 76.055C80.8921 75.2617 79.7721 74.1417 78.9554 72.695C78.1387 71.225 77.7304 69.545 77.7304 67.655C77.7304 65.765 78.1387 64.0967 78.9554 62.65C79.7721 61.2033 80.8921 60.0833 82.3154 59.29C83.7621 58.4967 85.3837 58.1 87.1804 58.1C88.4171 58.1 89.5487 58.31 90.5754 58.73C91.6021 59.15 92.4771 59.78 93.2004 60.62V51.03H97.5754ZM87.7054 73.5C88.7554 73.5 89.7004 73.2667 90.5404 72.8C91.3804 72.31 92.0454 71.6217 92.5354 70.735C93.0254 69.8483 93.2704 68.8217 93.2704 67.655C93.2704 66.4883 93.0254 65.4617 92.5354 64.575C92.0454 63.6883 91.3804 63.0117 90.5404 62.545C89.7004 62.055 88.7554 61.81 87.7054 61.81C86.6554 61.81 85.7104 62.055 84.8704 62.545C84.0304 63.0117 83.3654 63.6883 82.8754 64.575C82.3854 65.4617 82.1404 66.4883 82.1404 67.655C82.1404 68.8217 82.3854 69.8483 82.8754 70.735C83.3654 71.6217 84.0304 72.31 84.8704 72.8C85.7104 73.2667 86.6554 73.5 87.7054 73.5ZM110.439 58.1C113.192 58.1 115.292 58.765 116.739 60.095C118.209 61.4017 118.944 63.385 118.944 66.045V77H114.814V74.725C114.277 75.5417 113.507 76.1717 112.504 76.615C111.524 77.035 110.334 77.245 108.934 77.245C107.534 77.245 106.309 77.0117 105.259 76.545C104.209 76.055 103.392 75.39 102.809 74.55C102.249 73.6867 101.969 72.7183 101.969 71.645C101.969 69.965 102.587 68.6233 103.824 67.62C105.084 66.5933 107.055 66.08 109.739 66.08H114.569V65.8C114.569 64.4933 114.172 63.49 113.379 62.79C112.609 62.09 111.454 61.74 109.914 61.74C108.864 61.74 107.825 61.9033 106.799 62.23C105.795 62.5567 104.944 63.0117 104.244 63.595L102.529 60.41C103.509 59.6633 104.687 59.0917 106.064 58.695C107.44 58.2983 108.899 58.1 110.439 58.1ZM109.844 74.06C110.94 74.06 111.909 73.815 112.749 73.325C113.612 72.8117 114.219 72.0883 114.569 71.155V68.985H110.054C107.534 68.985 106.274 69.8133 106.274 71.47C106.274 72.2633 106.589 72.8933 107.219 73.36C107.849 73.8267 108.724 74.06 109.844 74.06ZM130.333 77.245C128.817 77.245 127.335 77.0467 125.888 76.65C124.442 76.2533 123.287 75.7517 122.423 75.145L124.103 71.82C124.943 72.38 125.947 72.835 127.113 73.185C128.303 73.5117 129.47 73.675 130.613 73.675C133.227 73.675 134.533 72.9867 134.533 71.61C134.533 70.9567 134.195 70.5017 133.518 70.245C132.865 69.9883 131.803 69.7433 130.333 69.51C128.793 69.2767 127.533 69.0083 126.553 68.705C125.597 68.4017 124.757 67.8767 124.033 67.13C123.333 66.36 122.983 65.2983 122.983 63.945C122.983 62.1717 123.718 60.76 125.188 59.71C126.682 58.6367 128.688 58.1 131.208 58.1C132.492 58.1 133.775 58.2517 135.058 58.555C136.342 58.835 137.392 59.22 138.208 59.71L136.528 63.035C134.942 62.1017 133.157 61.635 131.173 61.635C129.89 61.635 128.91 61.8333 128.233 62.23C127.58 62.6033 127.253 63.105 127.253 63.735C127.253 64.435 127.603 64.9367 128.303 65.24C129.027 65.52 130.135 65.7883 131.628 66.045C133.122 66.2783 134.347 66.5467 135.303 66.85C136.26 67.1533 137.077 67.6667 137.753 68.39C138.453 69.1133 138.803 70.14 138.803 71.47C138.803 73.22 138.045 74.62 136.528 75.67C135.012 76.72 132.947 77.245 130.333 77.245Z" fill="#F3F3F4"/>
<rect x="1" y="92" width="67" height="8" rx="4" fill="#D64933"/>
</svg>

<svg width="174" height="100" fill="none" xmlns="http://www.w3.org/2000/svg"><path d="M20.18 28.33H7.93L5.515 34H.825L11.85 9.5h4.48L27.39 34h-4.76l-2.45-5.67zm-1.505-3.57l-4.62-10.71L9.47 24.76h9.205zm22.016-9.66c2.356 0 4.246.688 5.67 2.065 1.423 1.377 2.135 3.418 2.135 6.125V34H44.12V23.85c0-1.633-.385-2.858-1.155-3.675-.77-.84-1.867-1.26-3.29-1.26-1.61 0-2.882.49-3.815 1.47-.933.957-1.4 2.345-1.4 4.165V34h-4.375V15.31h4.165v2.415c.723-.863 1.633-1.517 2.73-1.96 1.096-.443 2.333-.665 3.71-.665zm31.83-7.07V34h-4.2v-2.415a6.744 6.744 0 01-2.694 1.995c-1.05.443-2.217.665-3.5.665-1.797 0-3.419-.397-4.865-1.19a8.613 8.613 0 01-3.36-3.36c-.817-1.47-1.225-3.15-1.225-5.04 0-1.89.408-3.558 1.225-5.005a8.613 8.613 0 013.36-3.36c1.446-.793 3.068-1.19 4.865-1.19 1.236 0 2.368.21 3.395.63a6.83 6.83 0 012.625 1.89V8.03h4.375zm-9.87 22.47c1.05 0 1.996-.233 2.836-.7a5.31 5.31 0 001.995-2.065c.49-.887.735-1.913.735-3.08s-.245-2.193-.735-3.08-1.155-1.563-1.995-2.03c-.84-.49-1.785-.735-2.835-.735s-1.995.245-2.835.735c-.84.467-1.505 1.143-1.995 2.03-.49.887-.735 1.913-.735 3.08s.245 2.193.735 3.08a5.31 5.31 0 001.995 2.065c.84.467 1.785.7 2.835.7zM82.41 18.04c1.26-1.96 3.477-2.94 6.65-2.94v4.165a5.554 5.554 0 00-1.015-.105c-1.703 0-3.033.502-3.99 1.505-.957.98-1.435 2.403-1.435 4.27V34h-4.375V15.31h4.165v2.73zm27.76 6.72c0 .303-.023.735-.07 1.295H95.436c.256 1.377.921 2.473 1.994 3.29 1.097.793 2.45 1.19 4.06 1.19 2.054 0 3.745-.677 5.075-2.03l2.345 2.695c-.84 1.003-1.901 1.762-3.185 2.275-1.283.513-2.73.77-4.34.77-2.053 0-3.861-.408-5.425-1.225-1.563-.817-2.776-1.948-3.64-3.395-.84-1.47-1.26-3.127-1.26-4.97 0-1.82.409-3.453 1.225-4.9a8.901 8.901 0 013.466-3.43c1.47-.817 3.126-1.225 4.969-1.225 1.82 0 3.442.408 4.865 1.225a8.26 8.26 0 013.36 3.395c.817 1.447 1.225 3.127 1.225 5.04zm-9.45-6.16c-1.4 0-2.59.42-3.57 1.26-.956.817-1.54 1.913-1.75 3.29h10.605c-.186-1.353-.758-2.45-1.715-3.29-.956-.84-2.146-1.26-3.57-1.26zm13.653-3.29h4.375V34h-4.375V15.31zm2.205-3.08c-.793 0-1.458-.245-1.995-.735a2.512 2.512 0 01-.805-1.89c0-.747.268-1.365.805-1.855.537-.513 1.202-.77 1.995-.77.793 0 1.458.245 1.995.735.537.467.805 1.062.805 1.785 0 .77-.268 1.423-.805 1.96-.513.513-1.178.77-1.995.77zM21.65 64.26c1.353.443 2.427 1.19 3.22 2.24.793 1.027 1.19 2.31 1.19 3.85 0 2.123-.817 3.768-2.45 4.935C21.977 76.428 19.597 77 16.47 77H4.29V52.5h11.48c2.893 0 5.122.572 6.685 1.715 1.563 1.12 2.345 2.672 2.345 4.655 0 1.213-.28 2.287-.84 3.22a5.751 5.751 0 01-2.31 2.17zM8.84 56.07v6.755h6.44c1.587 0 2.8-.28 3.64-.84.863-.583 1.295-1.423 1.295-2.52 0-1.12-.432-1.96-1.295-2.52-.84-.583-2.053-.875-3.64-.875H8.84zm7.35 17.36c3.523 0 5.285-1.178 5.285-3.535s-1.762-3.535-5.285-3.535H8.84v7.07h7.35zm18.471-12.39c1.26-1.96 3.477-2.94 6.65-2.94v4.165a5.555 5.555 0 00-1.015-.105c-1.703 0-3.033.502-3.99 1.505-.957.98-1.435 2.403-1.435 4.27V77h-4.375V58.31h4.165v2.73zm10.361-2.73h4.375V77h-4.375V58.31zm2.205-3.08c-.793 0-1.458-.245-1.995-.735a2.514 2.514 0 01-.805-1.89c0-.747.269-1.365.805-1.855.537-.513 1.202-.77 1.995-.77.794 0 1.459.245 1.995.735.537.467.805 1.062.805 1.785 0 .77-.268 1.423-.805 1.96-.513.513-1.178.77-1.995.77zm18.518 2.87c2.356 0 4.246.688 5.67 2.065 1.423 1.377 2.134 3.418 2.134 6.125V77h-4.375V66.85c0-1.633-.385-2.858-1.155-3.675-.77-.84-1.866-1.26-3.29-1.26-1.61 0-2.881.49-3.815 1.47-.933.957-1.4 2.345-1.4 4.165V77H55.14V58.31h4.165v2.415a6.849 6.849 0 012.73-1.96c1.097-.443 2.334-.665 3.71-.665zm31.83-7.07V77h-4.2v-2.415a6.743 6.743 0 01-2.695 1.995c-1.05.443-2.216.665-3.5.665-1.796 0-3.418-.397-4.865-1.19-1.423-.793-2.543-1.913-3.36-3.36-.816-1.47-1.225-3.15-1.225-5.04 0-1.89.409-3.558 1.225-5.005.817-1.447 1.937-2.567 3.36-3.36 1.447-.793 3.069-1.19 4.865-1.19 1.237 0 2.369.21 3.395.63a6.828 6.828 0 012.625 1.89v-9.59h4.375zm-9.87 22.47c1.05 0 1.995-.233 2.835-.7a5.31 5.31 0 001.995-2.065c.49-.887.735-1.913.735-3.08s-.245-2.193-.735-3.08-1.155-1.563-1.995-2.03c-.84-.49-1.785-.735-2.835-.735s-1.995.245-2.835.735c-.84.467-1.505 1.143-1.995 2.03-.49.887-.735 1.913-.735 3.08s.245 2.193.735 3.08A5.31 5.31 0 0084.87 72.8c.84.467 1.785.7 2.835.7zm22.734-15.4c2.753 0 4.853.665 6.3 1.995 1.47 1.307 2.205 3.29 2.205 5.95V77h-4.13v-2.275c-.537.817-1.307 1.447-2.31 1.89-.98.42-2.17.63-3.57.63s-2.625-.233-3.675-.7c-1.05-.49-1.867-1.155-2.45-1.995-.56-.863-.84-1.832-.84-2.905 0-1.68.618-3.022 1.855-4.025 1.26-1.027 3.231-1.54 5.915-1.54h4.83v-.28c0-1.307-.397-2.31-1.19-3.01-.77-.7-1.925-1.05-3.465-1.05-1.05 0-2.089.163-3.115.49-1.004.327-1.855.782-2.555 1.365l-1.715-3.185c.98-.747 2.158-1.318 3.535-1.715a15.724 15.724 0 014.375-.595zm-.595 15.96c1.096 0 2.065-.245 2.905-.735a4.157 4.157 0 001.82-2.17v-2.17h-4.515c-2.52 0-3.78.828-3.78 2.485 0 .793.315 1.423.945 1.89.63.467 1.505.7 2.625.7zm20.489 3.185c-1.516 0-2.998-.198-4.445-.595-1.446-.397-2.601-.898-3.465-1.505l1.68-3.325c.84.56 1.844 1.015 3.01 1.365 1.19.327 2.357.49 3.5.49 2.614 0 3.92-.688 3.92-2.065 0-.653-.338-1.108-1.015-1.365-.653-.257-1.715-.502-3.185-.735-1.54-.233-2.8-.502-3.78-.805a5.993 5.993 0 01-2.52-1.575c-.7-.77-1.05-1.832-1.05-3.185 0-1.773.735-3.185 2.205-4.235 1.494-1.073 3.5-1.61 6.02-1.61 1.284 0 2.567.152 3.85.455 1.284.28 2.334.665 3.15 1.155l-1.68 3.325c-1.586-.933-3.371-1.4-5.355-1.4-1.283 0-2.263.198-2.94.595-.653.373-.98.875-.98 1.505 0 .7.35 1.202 1.05 1.505.724.28 1.832.548 3.325.805 1.494.233 2.719.502 3.675.805a5.62 5.62 0 012.45 1.54c.7.723 1.05 1.75 1.05 3.08 0 1.75-.758 3.15-2.275 4.2-1.516 1.05-3.581 1.575-6.195 1.575z" fill="#F3F3F4"/><rect x="1" y="92" width="67" height="8" rx="4" fill="#D64933"/></svg>
